packages/foundations/icons/Health/Mask.svg

<svg width="24" height="24" viewBox="0 0 24 24" fill="none" xmlns="http://www.w3.org/2000/svg">
<path fill-rule="evenodd" clip-rule="evenodd" d="M7 9.25H17V10.75H7V9.25ZM7 12.25H17V13.75H7V12.25ZM6.25 16C6.25 15.5858 6.58579 15.25 7 15.25H17C17.4142 15.25 17.75 15.5858 17.75 16C17.75 16.4142 17.4142 16.75 17 16.75H7C6.58579 16.75 6.25 16.4142 6.25 16Z" fill="#3D474D"/>
<path d="M4 10.75V9.25C3.74315 9.25 3.49233 9.27582 3.25 9.32501L3.25 10.878C3.48458 10.7951 3.73702 10.75 4 10.75Z" fill="#3D474D"/>
<path fill-rule="evenodd" clip-rule="evenodd" d="M12 7.75C9.6499 7.75 7.29905 8.01491 4.94483 8.54617L4.77734 7.81511L4.94247 8.5467L4.94483 8.54617C4.83097 8.57225 4.75041 8.67326 4.75 8.78947V17.2105C4.75041 17.3265 4.83062 17.4273 4.94408 17.4537C7.29827 17.9849 9.64992 18.25 12 18.25C14.3501 18.25 16.701 17.9851 19.0552 17.4538L19.2227 18.1849L19.0575 17.4533L19.0552 17.4538C19.1691 17.4277 19.2496 17.3267 19.25 17.2105V8.78992C19.2496 8.67395 19.1694 8.57273 19.056 8.54635C16.7018 8.0151 14.3501 7.75 12 7.75ZM4.61222 7.08351C7.07259 6.52818 9.53551 6.25 12 6.25C14.4645 6.25 16.9274 6.52818 19.3878 7.08351L19.3901 7.08404C20.1843 7.26599 20.7485 7.9719 20.75 8.78723L20.75 8.78857V9.32501C20.5077 9.27582 20.2568 9.25 20 9.25V10.75C20.263 10.75 20.5154 10.7951 20.75 10.878L20.75 15.122C21.6239 14.8131 22.25 13.9797 22.25 13C22.25 12.0203 21.6239 11.1869 20.75 10.878V9.32501C22.4617 9.67247 23.75 11.1858 23.75 13C23.75 14.8142 22.4617 16.3275 20.75 16.675V17.2114L20.75 17.2128C20.7485 18.0281 20.1843 18.734 19.3901 18.916L19.3878 18.9165C16.9274 19.4718 14.4645 19.75 12 19.75C9.53551 19.75 7.07259 19.4718 4.61222 18.9165L4.60986 18.916C3.81567 18.734 3.25146 18.0281 3.25 17.2128V16.675C1.53832 16.3275 0.25 14.8142 0.25 13C0.25 11.1858 1.53832 9.67247 3.25 9.32501L3.25 10.878C2.37611 11.1869 1.75 12.0203 1.75 13C1.75 13.9797 2.37611 14.8131 3.25 15.122L3.25 10.878C3.48458 10.7951 3.73702 10.75 4 10.75V9.25C3.74315 9.25 3.49233 9.27582 3.25 9.32501V8.78723C3.25146 7.9719 3.81567 7.26599 4.60986 7.08405L4.61222 7.08351Z" fill="#3D474D"/>
<path d="M20 9.25V10.75C20.263 10.75 20.5154 10.7951 20.75 10.878V9.32501C20.5077 9.27582 20.2568 9.25 20 9.25Z" fill="#3D474D"/>
</svg>

<svg xmlns="http://www.w3.org/2000/svg" fill="none" viewBox="0 0 24 24" width="100%" height="100%">
  <path fill="#3D474D" fill-rule="evenodd" d="M7 9.25h10v1.5H7v-1.5Zm0 3h10v1.5H7v-1.5ZM6.25 16a.75.75 0 0 1 .75-.75h10a.75.75 0 0 1 0 1.5H7a.75.75 0 0 1-.75-.75Z" clip-rule="evenodd"/>
  <path fill="#3D474D" d="M4 10.75v-1.5c-.257 0-.508.026-.75.075v1.553c.235-.083.487-.128.75-.128Z"/>
  <path fill="#3D474D" fill-rule="evenodd" d="M12 7.75c-2.35 0-4.7.265-7.055.796l-.168-.73.165.73h.003a.25.25 0 0 0-.195.243v8.421c0 .116.08.217.194.244 2.354.53 4.706.796 7.056.796 2.35 0 4.701-.265 7.055-.796l.168.73-.165-.73h-.003a.25.25 0 0 0 .195-.244V8.79a.251.251 0 0 0-.194-.244A31.963 31.963 0 0 0 12 7.75Zm-7.388-.666A33.463 33.463 0 0 1 12 6.25c2.464 0 4.927.278 7.388.834h.002a1.75 1.75 0 0 1 1.36 1.703v.538A3.767 3.767 0 0 0 20 9.25v1.5c.263 0 .515.045.75.128v4.244a2.251 2.251 0 0 0 0-4.244V9.325a3.751 3.751 0 0 1 0 7.35v.538a1.75 1.75 0 0 1-1.36 1.703h-.002c-2.46.556-4.924.834-7.388.834-2.464 0-4.927-.278-7.388-.834H4.61a1.75 1.75 0 0 1-1.36-1.703v-.538a3.751 3.751 0 0 1 0-7.35v1.553a2.251 2.251 0 0 0 0 4.244v-4.244c.235-.083.487-.128.75-.128v-1.5c-.257 0-.508.026-.75.075v-.538a1.75 1.75 0 0 1 1.36-1.703h.002Z" clip-rule="evenodd"/>
  <path fill="#3D474D" d="M20 9.25v1.5c.263 0 .515.045.75.128V9.325A3.767 3.767 0 0 0 20 9.25Z"/>
</svg>
